!!!COM: Haydn, Franz Joseph
!!!OTL: String Quartet in D major
!!!OPS: Opus 1
!!!ONM: No. 3
!!!OMD: Presto
!!!OMV: 5
!!!SCT: H III:3
!!!SCA: Thematisch-bibliographisches Werkevererzeichnis (A. van Hoboken)
!!!YOR: Bremner Edition, 1772
!!!ENC: Frances Bennion
!!!CDT: 1732/3/31/-1809/5/31/
!!!CNT: Oesterreich
!!!YEC: Copyright (c) 1994, 2000 Center for Computer Assisted Research in the Humanities
!!!YEM: Rights to all derivative editions reserved.
!!!YEM: Refer to licensing agreement for further details.
!!!YEN: United States of America
**kern	**kern	**kern	**kern
*k[f#c#]	*k[f#c#]	*k[f#c#]	*k[f#c#]
*D:	*D:	*D:	*D:
*clefF4	*clefC3	*clefF	*clefF
*M3/8	*M3/8	*M3/8	*M3/8
4D	4d	4dd 4f#	4dd 4f#
8r	8r	8r	32ff#
.	.	.	32ee
.	.	.	32ff#
.	.	.	32gg
=2	=2	=2	=2
4.r	4.r	4.r	8aa
.	.	.	8ff#
.	.	.	8dd
=3	=3	=3	=3
8A	8a	8a	8a
8F#	8f#	8f#	8f#
8D	8d	8d	8d
=4	=4	=4	=4
8B	8b	8b	8b
8G	8g	8g	8g
8E	8e	8e	8e
=5	=5	=5	=5
4A	8A	8A	8A
.	8e	8cc#	8gg
8A	8e	8cc#	8gg
=6	=6	=6	=6
8d	4d	4dd	4ff#
8D	.	.	.
8r	8r	8r	32d
.	.	.	32e
.	.	.	32f#
.	.	.	32g
=7	=7	=7	=7
8A	8a	8a	8a
8F#	8f#	8f#	8f#
8D	8d	8d	8d
=8	=8	=8	=8
8B	8b	8b	8b
8G	8g	8g	8g
8E	8e	8e	8e
=9	=9	=9	=9
4A	4a	8c#	8gg
.	.	16a	16ff#
.	.	16g	16ee
8AA	8A	16f#	16dd
.	.	16e	16cc#
=10	=10	=10	=10
8D	8d	4d	4dd
8DD	8D	.	.
8r	8r	8r	8ff#
=11	=11	=11	=11
4.r	4.r	4.r	4d
.	.	.	8c#
=12	=12	=12	=12
4.r	4.r	4r	4B
.	.	8ff#	8dd
=13	=13	=13	=13
4.r	4.r	4d	4B
.	.	8c#	8A
=14	=14	=14	=14
4.r	4.r	8B	8G#
.	.	4r	8r
.	.	.	8bb
=15	=15	=15	=15
8G#	4e	4e	4e
8E	.	.	.
8G#	8e	8b	8dd
=16	=16	=16	=16
8A	4e	4a	4cc#
8AA	.	.	.
8r	8r	32a	8r
.	.	32b	.
.	.	32cc#	.
.	.	32dd	.
=17	=17	=17	=17
4.r	4.r	8ee	4.r
.	.	8cc#	.
.	.	8a	.
=18	=18	=18	=18
8E	8b	8g#	8ddd
8A	8a	8a	8ccc#
8r	8r	32a	8r
.	.	32b	.
.	.	32cc#	.
.	.	32dd	.
=19	=19	=19	=19
4.r	4.r	8ee	4.r
.	.	8cc#	.
.	.	8a	.
=20	=20	=20	=20
8D	8a	8dd	16ff#
.	.	.	16ee
8A	8A	8cc#	16a
.	.	.	32b
.	.	.	32cc#
8r	8r	8r	32dd
.	.	.	32ee
.	.	.	32ff#
.	.	.	32gg#
=21	=21	=21	=21
4.r	4.r	4.r	8aa
.	.	.	8ee
.	.	.	8cc#
=22	=22	=22	=22
8e	8ee	8ee	8ee
8c#	8cc#	8cc#	8cc#
8A	8a	8a	8a
=23	=23	=23	=23
4E	4e	8e	8e
.	.	8a	8cc#
8E	8e	8g#	8b
=24	=24	=24	=24
4AA	4a	4a	4a
8r	8r	8r	8aa
=25	=25	=25	=25
4.B	8B	8B	4.dd#
.	8f#	8a	.
.	8f#	8a	.
=26	=26	=26	=26
4E	4e	4g	4ee
8r	8r	8r	8gg
=27	=27	=27	=27
4.A	8A	8A	4.cc#
.	8e	8g	.
.	8e	8g	.
=28	=28	=28	=28
4D	4d	4f#	4dd
8F#	8f#	8d	8a
=29	=29	=29	=29
4.G	4.g	8d	8b
.	.	8e	8g
.	.	8e	8e
=30	=30	=30	=30
4.A	4.a	8e	8cc#
.	.	8f#	8a
.	.	8f#	8f#
=31	=31	=31	=31
4.B	4.b	8f#	8dd
.	.	8g	8b
.	.	8g	8g
=32	=32	=32	=32
4.c#	4.cc#	8g	8ee
.	.	8a	8cc#
.	.	8e	8g
=33	=33	=33	=33
4d	4dd	4f#	8f#
.	.	.	16dd
.	.	.	16cc#
8r	8r	8r	16dd
.	.	.	16ee
=34	=34	=34	=34
4D	4d	4ff# 4a 4d	8ff#
.	.	.	8aa
8r	8r	8r	8ff#
=35	=35	=35	=35
4G	4g	4b	8ee
.	.	.	16bb
.	.	.	16gg
8G#	8g#	16a	16ff#
.	.	16g#	16ee
=36	=36	=36	=36
8A	8a	4e	4cc#
8E	8e	.	.
8AA	8A	8r	8r
=37	=37	=37	=37
4D	4d	4f# 4dd	4f# 4dd
8r	8r	8r	32ff#
.	.	.	32ee
.	.	.	32ff#
.	.	.	32gg
=38	=38	=38	=38
4.r	4.r	4.r	8aa
.	.	.	8ff#
.	.	.	8dd
=39	=39	=39	=39
8A	8a	8a	8a
8F#	8f#	8f#	8f#
8D	8d	8d	8d
=40	=40	=40	=40
8B	8b	8b	8b
8G	8g	8g	8g
8E	8e	8e	8e
=41	=41	=41	=41
4A	8A	8A	8A
.	8e	8cc#	8gg
8A	8e	8cc#	8gg
=42	=42	=42	=42
8d	4d	4dd	4ff#
8D	.	.	.
8r	8r	8r	32d
.	.	.	32e
.	.	.	32f#
.	.	.	32g
=43	=43	=43	=43
8A	8a	8a	8a
8F#	8f#	8f#	8f#
8D	8d	8d	8d
=44	=44	=44	=44
8B	8b	8b	8b
8G	8g	8g	8g
8E	8e	8e	8e
=45	=45	=45	=45
4A	4a	8c#	8gg
.	.	16a	16ff#
.	.	16g	16ee
8AA	8A	16f#	16dd
.	.	16e	16cc#
=46	=46	=46	=46
8D	8d	4d	4dd
8DD	8D	.	.
8D	8d	8ff#	8aa
=47	=47	=47	=47
4G	4g	4.gg	8bb
.	.	.	16gg
.	.	.	16aa
8E	8e	.	16bb
.	.	.	16ccc#
=48	=48	=48	=48
4D	4d	4ff#	4ddd
8F#	8f#	8f#	8f#
=49	=49	=49	=49
8G	8g	8g	8g
8E	8e	8e	8e
8A	8a	8a	8a
=50	=50	=50	=50
4D	4d	4d	4d
8r	8r	8r	8r
=51	=51	=51	=51
4BB	4B	4b 4d	[4.ff#
8r	8d	8b	.
=52	=52	=52	=52
4.r	8c#	8a#	4.ff#_
.	8r	8r	.
.	8e	8cc#	.
=53	=53	=53	=53
4r	8d	8b	4.ff#_
.	4r	8r	.
8B	.	8dd	.
=54	=54	=54	=54
8A#	4.r	8cc#	4.ff#_
8r	.	8r	.
8c#	.	8ee	.
=55	=55	=55	=55
8B	4.r	8dd	4ff#]
4r	.	4r	.
.	.	.	8bb
=56	=56	=56	=56
4.r	4.r	4.r	8gg
.	.	.	8ff#
.	.	.	8ee
=57	=57	=57	=57
4.r	4.r	4.r	8dd
.	.	.	8dd
.	.	.	8cc#
=58	=58	=58	=58
4r	4.r	4r	[4.b
8E	.	8g	.
=59	=59	=59	=59
8D#	4.r	8f#	4.b_
8r	.	8r	.
8F#	.	8a	.
=60	=60	=60	=60
8E	4r	8g	4.b_
4r	.	8r	.
.	8g	8b	.
=61	=61	=61	=61
4.r	8f#	8a	4.b_
.	8f#	8a	.
.	8e	8g	.
=62	=62	=62	=62
4.r	4d#	4f#	4b]
.	8r	8r	8bb
=63	=63	=63	=63
8BB	[4.B	8d#	8b
8C#	.	8e	8b
8D#	.	8f#	8a
=64	=64	=64	=64
8E	4.B]	8g	8g
8G	.	8e	8e
8r	.	8r	8aa
=65	=65	=65	=65
8AA	[4.A	8c#	8a
8BB	.	8d	8a
8C#	.	8e	8g
=66	=66	=66	=66
8D	4A]	8f#	8f#
8F#	.	8d	8d
8r	8r	8r	8dd
=67	=67	=67	=67
4.d	4.a	[4.dd	4ff#
.	.	.	8dd
=68	=68	=68	=68
4B	4b	4.dd_	4gg
8G	8g	.	8bb
=69	=69	=69	=69
8F#	8f#	8dd]	8aa
8A	8a	8d	8f#
8AA	8A	8c#	8e
=70	=70	=70	=70
8D	8d	4d	8d
8DD	8D	.	8r
8r	8r	8r	8ff#
=71	=71	=71	=71
4.A	4.f#	4.dd#	8bb
.	.	.	8r
.	.	.	8dd#
=72	=72	=72	=72
4.G	4.g	4.ee	8ee
.	.	.	8r
.	.	.	8bb
=73	=73	=73	=73
4.G	4.e	4.cc#	8aa
.	.	.	8r
.	.	.	8cc#
=74	=74	=74	=74
4.F#	[4.f#	4dd	8dd
.	.	.	8r
.	.	8dd	8ff#
=75	=75	=75	=75
4.F#	4.f#_	8cc#	8ee
.	.	8r	8r
.	.	8b	8dd
=76	=76	=76	=76
4F#	4f#]	8a#	8cc#
.	.	8r	8r
8F#	8f#	8f#	8f#
=77	=77	=77	=77
8D	8d	8d	8d
8C#	8c#	8c#	8c#
8BB	8B	8B	8B
=78	=78	=78	=78
4F#	4f#	4f#	4f#
8r	8r	8r	8ff#
=79	=79	=79	=79
4r	4.r	4r	[4.ee
8G	.	8b	.
=80	=80	=80	=80
8F#	4r	8a#	4.ee_
4r	.	8r	.
.	8b	8gg	.
=81	=81	=81	=81
4r	8a#	8ff#	4.ee_
.	4r	8r	.
8G	.	8b	.
=82	=82	=82	=82
8F#	4r	8a#	4.ee_
4r	.	8r	.
.	8b	8gg	.
=83	=83	=83	=83
4r	8a#	8ff#	8ee]
.	8r	8r	8ccc#
8F#	8a#	8cc#	8ee
=84	=84	=84	=84
8B	8b	8dd	8dd
8d	8dd	8b	8b
8D	8d	8d	8d
=85	=85	=85	=85
8E	8e	8e	8e
8C#	8c#	8c#	8c#
8F#	8f#	8f#	8f#
=86	=86	=86	=86
4G	4g	4g	4g
8r	8r	8r	8bb
=87	=87	=87	=87
4.r	4.r	8B	8b
.	.	8c#	8b
.	.	8d#	8a
=88	=88	=88	=88
4r	4r	8e	8g
.	.	8g	8e
8E	8e	8b	8gg
=89	=89	=89	=89
8D	8d	8b	8ff#
8F#	8f#	8d	8b
8FF#	8F#	8c#	8a#
=90	=90	=90	=90
4BB	4B	4B	4b
8r	8r	8r	8bb
=91	=91	=91	=91
4.r	4.r	8B	8b
.	.	8c#	8b
.	.	8d#	8a
=92	=92	=92	=92
4r	4r	8e	8g
.	.	8g	8e
8E	8e	8b	8gg
=93	=93	=93	=93
16D	16d	8b	8ff#
16E	16e	.	.
8F#	8f#	8d	8b
8FF#	8F#	8c#	8a#
=94	=94	=94	=94
4BB	4B	4B	4b
8B	8b	8b	8b
=95	=95	=95	=95
8d	8dd	8dd	8dd
8B	8b	8b	8b
8F#	8f#	8f#	8f#
=96	=96	=96	=96
4.G	4.g	4g	4g
.	.	8r	8ee
=97	=97	=97	=97
8A	8a	8A	8A
8B	8b	8e	8g
8c#	8cc#	8e	8g
=98	=98	=98	=98
8d	8dd	4d	4f#
8D	8d	.	.
8r	8r	8r	8a
=99	=99	=99	=99
4D	4d	4dd 4f#	4dd 4f#
8r	8r	8r	32ff#
.	.	.	32ee
.	.	.	32ff#
.	.	.	32gg
=100	=100	=100	=100
4.r	4.r	4.r	8aa
.	.	.	8ff#
.	.	.	8dd
=101	=101	=101	=101
8A	8a	8a	8a
8F#	8f#	8f#	8f#
8D	8d	8d	8d
=102	=102	=102	=102
8B	8b	8b	8b
8G	8g	8g	8g
8E	8e	8e	8e
=103	=103	=103	=103
4A	8A	8A	8A
.	8e	8cc#	8gg
8A	8e	8cc#	8gg
=104	=104	=104	=104
8d	4d	4dd	4ff#
8D	.	.	.
8r	8r	8r	32d
.	.	.	32e
.	.	.	32f#
.	.	.	32g
=105	=105	=105	=105
8A	8a	8a	8a
8F#	8f#	8f#	8f#
8D	8d	8d	8d
=106	=106	=106	=106
8B	8b	8b	8b
8G	8g	8g	8g
8E	8e	8e	8e
=107	=107	=107	=107
4A	4a	8c#	8gg
.	.	16a	16ff#
.	.	16g	16ee
8AA	8A	16f#	16dd
.	.	16e	16cc#
=108	=108	=108	=108
8D	8d	4d	4dd
8DD	8D	.	.
8r	8r	8r	8ff#
=109	=109	=109	=109
4.r	4.r	4.r	4d
.	.	.	8c#
=110	=110	=110	=110
4.r	4.r	4r	4B
.	.	8ff#	8dd
=111	=111	=111	=111
4.r	4.r	4d	4B
.	.	8c#	8A
=112	=112	=112	=112
4.r	4.r	8B	4G#
.	.	4r	.
.	.	.	8bb
=113	=113	=113	=113
8G#	4e	4e	4e
8E	.	.	.
8G#	8e	8b	8dd
=114	=114	=114	=114
8A	4e	4a	4cc#
8AA	.	.	.
8r	8r	32a	8r
.	.	32b	.
.	.	32cc#	.
.	.	32dd	.
=115	=115	=115	=115
4.r	4.r	8ee	4.r
.	.	8cc#	.
.	.	8a	.
=116	=116	=116	=116
8E	8b	8g#	8ddd
8A	8a	8a	8ccc#
8r	8r	32a	8r
.	.	32b	.
.	.	32cc#	.
.	.	32dd	.
=117	=117	=117	=117
4.r	4.r	8ee	4.r
.	.	8cc#	.
.	.	8a	.
=118	=118	=118	=118
8D	8a	8dd	16ff#
.	.	.	16ee
8A	8A	8cc#	16a
.	.	.	32b
.	.	.	32cc#
8r	8r	8r	32dd
.	.	.	32ee
.	.	.	32ff#
.	.	.	32gg#
=119	=119	=119	=119
4.r	4.r	4.r	8aa
.	.	.	8ee
.	.	.	8cc#
=120	=120	=120	=120
8e	8ee	8ee	8ee
8c#	8cc#	8cc#	8cc#
8A	8a	8a	8a
=121	=121	=121	=121
4E	4e	8e	8e
.	.	8a	8cc#
8E	8e	8g#	8b
=122	=122	=122	=122
4AA	4a	4a	4a
8r	8r	8r	8aa
=123	=123	=123	=123
4B	8B	8B	4.dd#
.	8f#	8a	.
8r	8f#	8a	.
=124	=124	=124	=124
4E	4e	4g	4ee
8r	8r	8r	8gg
=125	=125	=125	=125
4.A	8A	8A	4.cc#
.	8e	8g	.
.	8e	8g	.
=126	=126	=126	=126
4D	4d	4f#	4dd
8F#	8f#	8d	8a
=127	=127	=127	=127
4.G	4.g	8d	8b
.	.	8e	8g
.	.	8e	8e
=128	=128	=128	=128
4.A	4.a	8e	8cc#
.	.	8f#	8a
.	.	8f#	8f#
=129	=129	=129	=129
4.B	4.b	8f#	8dd
.	.	8g	8b
.	.	8g	8g
=130	=130	=130	=130
4.c#	4.cc#	8g	8ee
.	.	8a	8cc#
.	.	8e	8g
=131	=131	=131	=131
4d	4dd	4f#	8f#
.	.	.	16dd
.	.	.	16cc#
8r	8r	8r	16dd
.	.	.	16ee
=132	=132	=132	=132
4D	4d	4ff# 4d 4a	8ff#
.	.	.	8aa
8r	8r	8r	8ff#
=133	=133	=133	=133
4G	4g	8b	8ee
.	.	8a	16bb
.	.	.	16gg
8G#	8g#	8g#	16ff#
.	.	.	16ee
=134	=134	=134	=134
8A	8a	4e	4cc#
8E	8e	.	.
8AA	8A	8r	8r
=135	=135	=135	=135
4D	4d	4dd 4d	4dd 4f#
8r	8r	8r	32ff#
.	.	.	32ee
.	.	.	32ff#
.	.	.	32gg
=136	=136	=136	=136
4.r	4.r	4.r	8aa
.	.	.	8ff#
.	.	.	8dd
=137	=137	=137	=137
8A	8a	8a	8a
8F#	8f#	8f#	8f#
8D	8d	8d	8d
=138	=138	=138	=138
8B	8b	8b	8b
8G	8g	8g	8g
8E	8e	8e	8e
=139	=139	=139	=139
4A	8A	8A	8A
.	8e	8cc#	8gg
8A	8e	8cc#	8gg
=140	=140	=140	=140
8d	4d	4dd	4ff#
8D	.	.	.
8r	8r	8r	32d
.	.	.	32e
.	.	.	32f#
.	.	.	32g
=141	=141	=141	=141
8A	8a	8a	8a
8F#	8f#	8f#	8f#
8D	8d	8d	8d
=142	=142	=142	=142
8B	8b	8b	8b
8G	8g	8g	8g
8E	8e	8e	8e
=143	=143	=143	=143
4A	4a	8c#	8gg
.	.	16a	16ff#
.	.	16g	16ee
8AA	8A	16f#	16dd
.	.	16e	16cc#
=144	=144	=144	=144
8D	8d	4d	4dd
8DD	8D	.	.
8D	8d	8ff#	8aa
=145	=145	=145	=145
4G	4g	4.gg	8bb
.	.	.	16gg
.	.	.	16aa
8E	8e	.	16bb
.	.	.	16ccc#
=146	=146	=146	=146
4D	4d	4ff#	4ddd
8F#	8f#	8f#	8f#
=147	=147	=147	=147
8G	8g	8g	8g
8E	8e	8e	8e
8A	8a	8a	8a
=148	=148	=148	=148
4D	4d	4d	4d
8r	8r	8r	8r
==	==	==	==
*-	*-	*-	*-
!!!RWG1: This file contains only pitch and duration data.
!!!RWG2: Transposing instruments are not transposed.
!!!RWG3: Spines may have incompatible meters.
!!!RWG4: Durations of rests and tied notes may be interpreted.
!!!RWG: Key is interpreted using the Humdrum key tool.
!!!GTL: 10 Divertimentos
!!!AFT: stage1
!!!END: 1997/04/15
!!!KEY: 1133421107
!!!EMD: Converted from MuseData to Humdrum Dec 16, 2000, by Andreas Kornstaedt using muse2kern.
!!!EMD: Manual editing by Craig Sapp, Nov 2001
